Adwaita++/places/16/folder-image-people.svg

<svg height="16" width="16" xmlns="http://www.w3.org/2000/svg">
  <path d="m4.545 5.452c-.046.011-.092.029-.135.052-.43.227-.54.936-.246 1.592.237.528.657.854 1.039.844.287 1.753 1.43 3.06 2.79 3.06h.012c1.361 0 2.504-1.307 2.791-3.06.381.01.802-.316 1.039-.844.294-.656.184-1.365-.246-1.592-.044-.023-.089-.041-.135-.052-.055-1.917-1.578-3.452-3.454-3.452-1.875 0-3.4 1.535-3.455 3.452zm5.849 5.548c-.289.701-1.274 1.227-2.449 1.227-1.17 0-2.146-.519-2.44-1.215-2.468.258-4.267.89-4.483 1.637-.003.007.002.016 0 .023-.007.027-.007.051-.01.078-.001.013-.012.021-.012.034v.009 1.85c.001.197.157.357.351.357h13.299c.194 0 .35-.16.35-.357v-1.85-.022c-.002-.043-.021-.08-.033-.123-.221-.756-2.059-1.396-4.572-1.648z" fill="#474747"/>
</svg>

<svg xmlns="http://www.w3.org/2000/svg" width="16" height="16" version="1.1">
 <defs>
  <style id="current-color-scheme" type="text/css">
   .ColorScheme-Text { color:#474747; } .ColorScheme-Highlight { color:#4285f4; }
  </style>
 </defs>
 <path style="fill:currentColor" class="ColorScheme-Text" d="M 4.545,5.452 C 4.499,5.463 4.453,5.481 4.41,5.504 3.98,5.731 3.87,6.44 4.164,7.096 4.401,7.624 4.821,7.95 5.203,7.94 5.49,9.693 6.633,11 7.993,11 H 8.005 C 9.366,11 10.509,9.693 10.796,7.94 11.177,7.95 11.598,7.624 11.835,7.096 12.129,6.44 12.019,5.731 11.589,5.504 11.545,5.481 11.5,5.463 11.454,5.452 11.399,3.535 9.876,2 8,2 6.125,2 4.6,3.535 4.545,5.452 Z M 10.394,11 C 10.105,11.701 9.12,12.227 7.945,12.227 6.775,12.227 5.799,11.708 5.505,11.012 3.037,11.27 1.238,11.902 1.022,12.649 1.019,12.656 1.024,12.665 1.022,12.672 1.015,12.699 1.015,12.723 1.012,12.75 1.011,12.763 1,12.771 1,12.784 V 12.793 14.643 C 1.001,14.84 1.157,15 1.351,15 H 14.65 C 14.844,15 15,14.84 15,14.643 V 12.793 12.771 C 14.998,12.728 14.979,12.691 14.967,12.648 14.746,11.892 12.908,11.252 10.395,11 Z"/>
</svg>
